!! 00000] TT[WS
!!!OTL: Mai bianshi
!!!ARE: Asia, China, Shanxi Yuanping
!! Ethnic Group: Han
!! WII, 76 (2)
!!!SCT: J0511
!!!YEM: Copyright 1995, estate of Helmut Schaffrath.
**kern
*ICvox
*Ivox
*M2/4
*k[f#c#g#]
*A:
{8.aa
16ccc#
4ee
=1
8aa
16ccc#
16bb
4aa
=2
8.ccc#
16bb
8.ccc#
16bb
=3
16ff#
16ee
16b
16cc#
4ee}
=4
{8ee
16ee
16ff#
8bb
8bb
=5
8ff#
16gg#
16ff#
8ee
8cc#
=6
16ee
16cc#
16ee
16ff#
8bb
8bb
=7
16ff#
16ee
16ff#
16aa
4ee}
=8
{16aa
16bb
16eee
16bb
4aa
=9
16ee
16cc#
16ee
16ff#
8bb
8bb
=10
16ff#
16ee
16ff#
16aa
4ee}
==
!!!AGN: Xiaodiao. Qingge
!!!ONB: ESAC (Essen Associative Code) Database: CHINA
!!!AMT: simple duple
!!!AIN: vox
!!!EED: Helmut Schaffrath
!!!EEV: 1.0
*-
